X:1
T:Title
%%score ( 1 2 ) ( 3 4 )
L:1/8
Q:1/4=90
M:3/4
K:Bb
V:1 treble nm="Grand Piano, Soprano"
V:2 treble 
V:3 bass nm="Choir Pad, Abbey Wood, 87.87 D"
V:4 bass 
V:1
 [DF][B,D] [EG]2 [DF]2 | [DF][B,D] [EG]2 [EF]2 | [EA][DB] [EF]2 [EF]2 | [EG][EF] [DF]4 | %4
w: By~Winfield~Scott~Weeden * * *||||
 [DF][B,D] [_DG]2 [=DF]2 | [DF][B,D] [_DG]2 [=DF]2 | [CA][B,B] [=Ec]2 [EG]2 | [DB][CA] [A,F]4 | %8
w: ||||
 z2 G2 G2 | [EB][EG] [DF]2 [B,D]2 | z2 B2 d2 | [=Ec][GB] [Fc]4 | z2 d2 d2 | [Ge][Fd] [GB]2 [EG]2 | %14
w: ||||||
 [_DG][DG] [=DF]2 [DF]2 | .F2 z2 z2 | z6 |] %17
w: |||
V:2
 x6 | x6 | x6 | x6 | x6 | x6 | x6 | x6 | BA EE EE | x6 | FF DD FF | x6 | Bc DD FF | x6 | x6 | %15
 C/D/[EF] [DF]4- | [DF]4 z2 |] %17
V:3
 [B,,B,][B,,F,] [B,,B,]2 [B,,B,]2 | [B,,B,][B,,F,] [C,A,]2 [F,A,]2 | [F,C][G,B,] [A,C]2 [B,D]2 | %3
 [E,B,][F,A,] [B,,B,]4 | [B,,B,][B,,F,] [B,,=E,]2 [B,,F,]2 | [B,,B,][B,,F,] [B,,=E,]2 [B,,F,]2 | %6
 [E,F,][D,F,] [C,G,]2 [C,C]2 | [C,=E,][C,E,] [F,,F,]4 | z2 [E,B,][E,B,] [E,B,][E,B,] | %9
 [E,G,][E,B,] [B,,B,]2 [B,,F,]2 | z2 [B,,F,][B,,F,] [B,,B,][B,,B,] | [C,G,][=E,C] [F,A,]4 | %12
 z2 [B,,F,][B,,F,] [D,B,][F,B,] | B,B, [E,B,]2 [E,B,]2 | [E,B,][=E,B,] [F,B,]2 [F,B,]2 | %15
 A,/B,/[F,C] [B,,B,]4- | [B,,B,]4 z2 |] %17
V:4
 x6 | x6 | x6 | x6 | x6 | x6 | x6 | x6 | x6 | x6 | x6 | x6 | x6 | x6 | x6 | .F,2 z2 z2 | x6 |] %17

